public/flags/TN.svg

<svg fill="none" height="53" viewBox="0 0 61 53" width="61" xmlns="http://www.w3.org/2000/svg" xmlns:xlink="http://www.w3.org/1999/xlink"><mask id="a" height="43" maskUnits="userSpaceOnUse" width="59" x="1" y="3"><rect fill="#fff" height="42.5" rx="4.24286" width="59" x="1" y="3"/></mask><rect fill="#fff" height="42.5" rx="4.24286" width="59" x="1" y="3"/><g mask="url(#a)"><path d="m1 3h59v42.5h-59z" fill="#e92434"/><path clip-rule="evenodd" d="m43.1431 24.2499c0 7.0417-5.6604 12.75-12.6428 12.75-6.9825 0-12.6429-5.7083-12.6429-12.75 0-7.0416 5.6604-12.75 12.6429-12.75 6.9824 0 12.6428 5.7084 12.6428 12.75zm-16.8571.0001c0-4.7101 3.5066-8.5943 8.0307-9.1422-1.1734-.4988-2.463-.7745-3.8164-.7745-5.4308 0-9.8333 4.4398-9.8333 9.9166 0 5.4769 4.4025 9.9167 9.8333 9.9167 1.3533 0 2.6428-.2757 3.8162-.7744-4.524-.5481-8.0305-4.4322-8.0305-9.1422zm6.594 5.642 2.5808-3.1556 3.7997 1.4315-2.1784-3.4505 2.5241-3.2019-3.9272 1.023-2.2397-3.4103-.2487 4.0827-3.9083 1.0943 3.7735 1.5002z" fill="#fff" fill-rule="evenodd"/></g></svg>

<svg width="61" height="53" viewBox="0 0 61 53" fill="none" xmlns="http://www.w3.org/2000/svg">
<rect x="1" y="3" width="59" height="42.5" rx="4.24286" fill="white"/>
<mask id="mask0" mask-type="alpha" maskUnits="userSpaceOnUse" x="1" y="3" width="59" height="43">
<rect x="1" y="3" width="59" height="42.5" rx="4.24286" fill="white"/>
</mask>
<g mask="url(#mask0)">
<rect x="1" y="3" width="59" height="42.5" fill="#E92434"/>
<path fill-rule="evenodd" clip-rule="evenodd" d="M43.1431 24.2499C43.1431 31.2916 37.4827 36.9999 30.5003 36.9999C23.5178 36.9999 17.8574 31.2916 17.8574 24.2499C17.8574 17.2083 23.5178 11.4999 30.5003 11.4999C37.4827 11.4999 43.1431 17.2083 43.1431 24.2499ZM26.286 24.25C26.286 19.5399 29.7926 15.6557 34.3167 15.1078C33.1433 14.609 31.8537 14.3333 30.5003 14.3333C25.0695 14.3333 20.667 18.7731 20.667 24.2499C20.667 29.7268 25.0695 34.1666 30.5003 34.1666C31.8536 34.1666 33.1431 33.8909 34.3165 33.3922C29.7925 32.8441 26.286 28.96 26.286 24.25ZM32.88 29.892L35.4608 26.7364L39.2605 28.1679L37.0821 24.7174L39.6062 21.5155L35.679 22.5385L33.4393 19.1282L33.1906 23.2109L29.2823 24.3052L33.0558 25.8054L32.88 29.892Z" fill="white"/>
</g>
</svg>
